src/lib/packages/icons/src/assets/line/alarm-minus-alt.svg

<svg width="24" height="24" viewBox="0 0 24 24" fill="none" xmlns="http://www.w3.org/2000/svg">
<path d="M17.47 3.53005C17.177 3.23705 17.177 2.76202 17.47 2.46902C17.763 2.17602 18.238 2.17602 18.531 2.46902L20.531 4.46902C20.824 4.76202 20.824 5.23705 20.531 5.53005C20.385 5.67605 20.193 5.75002 20.001 5.75002C19.809 5.75002 19.617 5.67705 19.471 5.53005L17.47 3.53005ZM4.53005 3.53005C4.82305 3.23705 4.82305 2.76202 4.53005 2.46902C4.23705 2.17602 3.76202 2.17602 3.46902 2.46902L1.46902 4.46902C1.17602 4.76202 1.17602 5.23705 1.46902 5.53005C1.61502 5.67605 1.80705 5.75002 1.99905 5.75002C2.19105 5.75002 2.38308 5.67705 2.52908 5.53005L4.53005 3.53005ZM11.0301 19.25C9.74505 19.25 8.4941 18.9131 7.4031 18.2691C5.1691 16.9881 3.78005 14.586 3.78005 12C3.78005 8.00202 7.03205 4.75002 11.0301 4.75002C13.6161 4.75002 16.018 6.138 17.303 8.381C17.788 9.204 18.0991 10.118 18.2251 11.096C18.2781 11.507 18.657 11.7981 19.065 11.7431C19.476 11.6901 19.7659 11.314 19.7129 10.903C19.5599 9.72198 19.1841 8.617 18.6001 7.626C17.0521 4.926 14.1521 3.24905 11.0301 3.24905C6.20505 3.24905 2.28005 7.17405 2.28005 11.999C2.28005 14.815 3.65302 17.441 5.89602 19.063L4.47414 20.4651C4.17914 20.7561 4.17509 21.2309 4.46609 21.5259C4.61209 21.6749 4.80702 21.75 5.00002 21.75C5.19002 21.75 5.3799 21.678 5.5259 21.534L7.22805 19.856C8.40105 20.431 9.69705 20.75 11.0301 20.75C11.4441 20.75 11.7801 20.414 11.7801 20C11.7801 19.586 11.4441 19.25 11.0301 19.25ZM10.25 8.04006V12.0401C10.25 12.4541 10.586 12.7901 11 12.7901C11.414 12.7901 11.75 12.4541 11.75 12.0401V8.04006C11.75 7.62606 11.414 7.29006 11 7.29006C10.586 7.29006 10.25 7.62606 10.25 8.04006ZM22.75 17V19C22.75 21.418 21.418 22.75 19 22.75H17C14.582 22.75 13.25 21.418 13.25 19V17C13.25 14.582 14.582 13.25 17 13.25H19C21.418 13.25 22.75 14.582 22.75 17ZM21.25 17C21.25 15.423 20.577 14.75 19 14.75H17C15.423 14.75 14.75 15.423 14.75 17V19C14.75 20.577 15.423 21.25 17 21.25H19C20.577 21.25 21.25 20.577 21.25 19V17ZM19.25 17.25H16.75C16.336 17.25 16 17.586 16 18C16 18.414 16.336 18.75 16.75 18.75H19.25C19.664 18.75 20 18.414 20 18C20 17.586 19.664 17.25 19.25 17.25Z" fill="currentColor"/>
</svg>

<svg xmlns="http://www.w3.org/2000/svg" width="24" height="24" fill="none"><path fill="currentColor" d="M17.47 3.53a.75.75 0 0 1 1.061-1.061l2 2a.75.75 0 0 1-1.06 1.061l-2.001-2Zm-12.94 0a.75.75 0 1 0-1.061-1.061l-2 2a.75.75 0 0 0 1.06 1.061l2.001-2Zm6.5 15.72a7.125 7.125 0 0 1-3.627-.98A7.24 7.24 0 0 1 3.78 12c0-3.998 3.252-7.25 7.25-7.25a7.24 7.24 0 0 1 6.273 3.631c.485.823.796 1.737.922 2.715a.75.75 0 1 0 1.488-.193A8.596 8.596 0 0 0 18.6 7.626a8.741 8.741 0 0 0-7.57-4.377c-4.825 0-8.75 3.925-8.75 8.75a8.739 8.739 0 0 0 3.616 7.064l-1.422 1.402a.75.75 0 0 0 1.052 1.069l1.702-1.678a8.638 8.638 0 0 0 3.802.894.75.75 0 0 0 0-1.5Zm-.78-11.21v4a.75.75 0 0 0 1.5 0v-4a.75.75 0 0 0-1.5 0ZM22.75 17v2c0 2.418-1.332 3.75-3.75 3.75h-2c-2.418 0-3.75-1.332-3.75-3.75v-2c0-2.418 1.332-3.75 3.75-3.75h2c2.418 0 3.75 1.332 3.75 3.75Zm-1.5 0c0-1.577-.673-2.25-2.25-2.25h-2c-1.577 0-2.25.673-2.25 2.25v2c0 1.577.673 2.25 2.25 2.25h2c1.577 0 2.25-.673 2.25-2.25v-2Zm-2 .25h-2.5a.75.75 0 0 0 0 1.5h2.5a.75.75 0 0 0 0-1.5Z"/></svg>
